X: 4939
T: Breakish Storm Sheep, The
R: jig
M: 6/8
K: Amajor
|:c2e ecA|BBB def|ece ecA|ABc Bcd|
eee aea|faf def|eee ecc|1 dcB A2z:|2 dcB Afg||
|:aAA gAA|fAA eAA|Ace ecA|ABc Bcd|
eee aea|faf def|eee ecc|dcB A2z:|

